icons/message-line.svg

<svg viewBox="0 0 24 24" fill="currentColor" xmlns="http://www.w3.org/2000/svg"><path d="M6.45455 19L2 22.5V4C2 3.44772 2.44772 3 3 3H21C21.5523 3 22 3.44772 22 4V18C22 18.5523 21.5523 19 21 19H6.45455ZM5.76282 17H20V5H4V18.3851L5.76282 17ZM8 10H16V12H8V10Z"/></svg>

<svg xmlns="http://www.w3.org/2000/svg" viewBox="0 0 24 24">
    <g>
        <path fill="none" d="M0 0h24v24H0z"/>
        <path d="M6.455 19L2 22.5V4a1 1 0 0 1 1-1h18a1 1 0 0 1 1 1v14a1 1 0 0 1-1 1H6.455zm-.692-2H20V5H4v13.385L5.763 17zM8 10h8v2H8v-2z"/>
    </g>
</svg>
